svgs/sharp-light/rectangle-ad.svg

<svg xmlns="http://www.w3.org/2000/svg" viewBox="0 0 576 512"><!--! Font Awesome Pro 6.6.0 by @fontawesome - https://fontawesome.com License - https://fontawesome.com/license (Commercial License) Copyright 2024 Fonticons, Inc. --><path d="M32 64l0 384 512 0 0-384L32 64zM0 32l32 0 512 0 32 0 0 32 0 384 0 32-32 0L32 480 0 480l0-32L0 64 0 32zM336 280a40 40 0 1 0 80 0 40 40 0 1 0 -80 0zm40-72c14.8 0 28.6 4.5 40 12.1l0-44.1 0-16 32 0 0 16 0 104 0 56 0 16-32 0 0-12.1c-11.4 7.7-25.2 12.1-40 12.1c-39.8 0-72-32.2-72-72s32.2-72 72-72zM186.6 160l10.5 0 5.9 0 10.5 0 4.2 9.7L296.3 352l-34.9 0-13.8-32-94.5 .5-1 0L138.5 352l-34.9 0 78.7-182.3 4.2-9.7zM166 288.4l67.9-.3L200 209.6l-34 78.8z"/></svg>

<svg xmlns="http://www.w3.org/2000/svg" viewBox="0 0 576 512"><!--! Font Awesome Pro 6.4.0 by @fontawesome - https://fontawesome.com License - https://fontawesome.com/license (Commercial License) Copyright 2023 Fonticons, Inc. --><path d="M32 64V448H544V64H32zM0 32H32 544h32V64 448v32H544 32 0V448 64 32zM336 280a40 40 0 1 0 80 0 40 40 0 1 0 -80 0zm40-72c14.8 0 28.6 4.5 40 12.1V176 160h32v16V280v56 16H416V339.9c-11.4 7.7-25.2 12.1-40 12.1c-39.8 0-72-32.2-72-72s32.2-72 72-72zM186.6 160h10.5 5.9 10.5l4.2 9.7L296.3 352H261.5l-13.8-32-94.5 .5-1 0L138.5 352H103.7l78.7-182.3 4.2-9.7zM166 288.4l67.9-.3L200 209.6l-34 78.8z"/></svg>
